public/flags/GT.svg

<svg fill="none" height="53" viewBox="0 0 61 53" width="61" xmlns="http://www.w3.org/2000/svg" xmlns:xlink="http://www.w3.org/1999/xlink"><mask id="a" height="43" maskUnits="userSpaceOnUse" width="59" x="1" y="3"><rect fill="#fff" height="41.4393" rx="3.7125" stroke="#fff" stroke-width="1.06071" width="57.9393" x="1.53036" y="3.53036"/></mask><rect fill="#fff" height="41.4393" rx="3.7125" stroke="#f5f5f5" stroke-width="1.06071" width="57.9393" x="1.53036" y="3.53036"/><g mask="url(#a)"><path d="m40.3333 3h19.6667v42.5h-19.6667z" fill="#63aee3"/><path clip-rule="evenodd" d="m1 45.5h19.6667v-42.5h-19.6667z" fill="#63aee3" fill-rule="evenodd"/><path d="m26.2951 22.8333c0-.7811-.6332-1.4143-1.4142-1.4143-.7811 0-1.4143.6332-1.4143 1.4143zm.6746 6.1255c.6741.3945 1.5404.1678 1.9349-.5064s.1678-1.5405-.5064-1.9349zm5.7871-2.5367c-.6564.4233-.8453 1.2987-.422 1.9551.4234.6564 1.2987.8453 1.9551.4219zm4.7764-3.5888c0-.7811-.6332-1.4143-1.4142-1.4143-.7811 0-1.4143.6332-1.4143 1.4143zm-14.0666 0c0 2.6136 1.4079 4.8995 3.5031 6.1255l1.4285-2.4413c-1.2568-.7355-2.1031-2.1082-2.1031-3.6842zm10.8233 5.9658c1.9506-1.2581 3.2433-3.4617 3.2433-5.9658h-2.8285c0 1.5102-.7768 2.8334-1.9479 3.5888z" fill="#628a40"/><path clip-rule="evenodd" d="m30.5 25.6667c1.5516 0 2.8095-1.2686 2.8095-2.8334s-1.2579-2.8333-2.8095-2.8333c-1.5517 0-2.8096 1.2685-2.8096 2.8333s1.2579 2.8334 2.8096 2.8334z" fill="#dcc26d" fill-rule="evenodd"/></g></svg>

<svg width="61" height="53" viewBox="0 0 61 53" fill="none" xmlns="http://www.w3.org/2000/svg">
<rect x="1.53036" y="3.53036" width="57.9393" height="41.4393" rx="3.7125" fill="white" stroke="#F5F5F5" stroke-width="1.06071"/>
<mask id="mask0" mask-type="alpha" maskUnits="userSpaceOnUse" x="1" y="3" width="59" height="43">
<rect x="1.53036" y="3.53036" width="57.9393" height="41.4393" rx="3.7125" fill="white" stroke="white" stroke-width="1.06071"/>
</mask>
<g mask="url(#mask0)">
<rect x="40.3333" y="3" width="19.6667" height="42.5" fill="#63AEE3"/>
<path fill-rule="evenodd" clip-rule="evenodd" d="M1 45.5H20.6667V3H1V45.5Z" fill="#63AEE3"/>
<path d="M26.2951 22.8333C26.2951 22.0522 25.6619 21.419 24.8809 21.419C24.0998 21.419 23.4666 22.0522 23.4666 22.8333H26.2951ZM26.9697 28.9588C27.6438 29.3533 28.5101 29.1266 28.9046 28.4524C29.2991 27.7782 29.0724 26.9119 28.3982 26.5175L26.9697 28.9588ZM32.7568 26.4221C32.1004 26.8454 31.9115 27.7208 32.3348 28.3772C32.7582 29.0336 33.6335 29.2225 34.2899 28.7991L32.7568 26.4221ZM37.5332 22.8333C37.5332 22.0522 36.9 21.419 36.119 21.419C35.3379 21.419 34.7047 22.0522 34.7047 22.8333H37.5332ZM23.4666 22.8333C23.4666 25.4469 24.8745 27.7328 26.9697 28.9588L28.3982 26.5175C27.1414 25.782 26.2951 24.4093 26.2951 22.8333H23.4666ZM34.2899 28.7991C36.2405 27.541 37.5332 25.3374 37.5332 22.8333H34.7047C34.7047 24.3435 33.9279 25.6667 32.7568 26.4221L34.2899 28.7991Z" fill="#628A40"/>
<path fill-rule="evenodd" clip-rule="evenodd" d="M30.5 25.6667C32.0516 25.6667 33.3095 24.3981 33.3095 22.8333C33.3095 21.2685 32.0516 20 30.5 20C28.9483 20 27.6904 21.2685 27.6904 22.8333C27.6904 24.3981 28.9483 25.6667 30.5 25.6667Z" fill="#DCC26D"/>
</g>
</svg>
